X:2
T: Jacob von Artefelde
N: A0364B
O: Europa, Mitteleuropa, Deutschland
N: Bei der Familie Westendorp in Elberfeld gehoert und mitgetheilt
N: durch F.W. Arnold: Volkslieder I. S. 14.
R: Romanze, Ballade, Lied, Personenlied
M: 6/4
L: 1/8
K: F
G2 | G4F2G4A2 | F6F4
F2 | B4B2c4A2 | G3AB2A4
A2 | c4c2B4A2 | G6A4
A2 | B3GG2G4A2 | A3GF2G4

